X:172
T:New Wells. JJo2.172
Z:vmp.Robert Watkins 2014 www.village-music-project.org.uk
B:J.Johnson Choice Collection Vol 2 after c1750
M:2/4
L:1/8
Q:1/4=120
K:F
F3G|(AF)d2|cAGF|(GE)C2|F3G|(AF)f2|ecd=B|c4:|
|:c3d|ecf2|{B}A2GF|EGC2|B3d|cEFB|A2TG2|F4:|

